22x22/apps/construo.svg

<svg xmlns="http://www.w3.org/2000/svg" width="22" height="22" version="1.1">
 <path style="fill:#007c7d;fill-rule:evenodd" d="m 16.761005,0.9387085 c -0.08136,-6.807e-4 -0.162248,0.012539 -0.239164,0.039086 L 8.4153283,2.9330025 C 8.2072068,2.9769873 8.0294899,3.1113838 7.9304855,3.2996585 L 3.3658951,9.355995 C 3.2459272,9.476218 3.1726887,9.63523 3.159302,9.804544 c -7.1e-6,0.0018 -7.1e-6,0.0037 0,0.0055 -0.00171,0.01918 -0.00265,0.03844 -0.00279,0.0577 3.034e-4,0.02114 0.00155,0.04225 0.00371,0.06328 0.00223,0.02372 0.00565,0.04734 0.010236,0.07072 0.00472,0.02354 0.010619,0.04684 0.017681,0.0698 0.021373,0.07333 0.054362,0.142768 0.097713,0.205661 3.152e-4,6.32e-4 6.321e-4,0.0013 9.481e-4,0.0019 l 4.2165471,8.995176 9.238e-4,0.0028 c 0.00122,0.0043 0.00248,0.0087 0.00379,0.01302 6.321e-4,0.0018 0.00127,0.0037 0.00189,0.0055 0.00701,0.02209 0.015072,0.04383 0.024183,0.06514 0.00661,0.01513 0.013759,0.03003 0.021411,0.04467 0.00531,0.01068 0.0109,0.02123 0.016744,0.03162 0.00597,0.0098 0.012174,0.01939 0.018606,0.02885 0.00511,0.0082 0.01039,0.01623 0.01583,0.02419 0.011143,0.01599 0.022938,0.03151 0.035352,0.04655 0.00214,0.0028 0.00433,0.0056 0.00652,0.0084 0.011051,0.01249 0.02254,0.0246 0.034437,0.03629 0.00639,0.0066 0.012908,0.01317 0.01955,0.01956 0.0067,0.0063 0.013525,0.01253 0.020464,0.0186 0.014128,0.01204 0.02872,0.02353 0.043738,0.03444 6.321e-4,3.08e-4 0.00127,6.32e-4 0.00189,9.24e-4 6.321e-4,6.32e-4 0.00127,0.0013 0.00189,0.0019 0.018038,0.01295 0.036669,0.02507 0.055836,0.0363 6.321e-4,6.32e-4 0.00127,0.0013 0.00189,0.0019 0.00185,9.72e-4 0.00369,0.0019 0.00559,0.0028 0.017284,0.01007 0.034981,0.01936 0.053044,0.02791 0.00218,0.0013 0.00433,0.0025 0.00653,0.0038 0.00709,0.0029 0.014231,0.0057 0.021412,0.0084 0.00922,0.0043 0.018519,0.0083 0.027907,0.01212 0.019861,0.0073 0.040048,0.01393 0.060489,0.01955 0.1013429,0.02881 0.2077992,0.03485 0.3117501,0.01769 l 9.5685779,0.01025 c 0.534571,0.06495 0.946255,-0.462158 0.753753,-0.965077 L 17.50284,14.695001 c -0.03289,-0.476377 -0.51468,-0.787162 -0.96224,-0.62071 -0.0022,6.32e-4 -0.0043,0.0013 -0.0065,0.0018 l -4.812745,1.333618 -2.32593,-3.850008 1.37915,-4.6074406 6.71889,-0.5081072 0.648628,-0.8124136 -0.676546,-3.9764226 c 0.0011,-0.3915001 -0.313028,-0.7110002 -0.704489,-0.7166341 z"/>
 <path style="opacity:0.2;fill:none;stroke:#000000;stroke-linecap:round;stroke-linejoin:bevel" d="m 3.2601648,10.322055 7.4599782,-3.1407645 6.19148,-5.6775383 m 1.328902,18.4927538 -6.735121,-3.755317 m -3.714888,3.74476 9.211714,-5.315142 m -9.211714,5.315142 3.714888,-3.74476 M 7.790516,19.985949 8.99861,12.194434 M 3.2601648,10.322055 8.99861,12.194434 M 10.720143,7.1812905 8.99861,12.194434 11.505404,16.241189 17.00223,14.670807 18.240525,19.996506 7.790516,19.985949 3.2601648,10.322055 8.183146,3.4667304 Z m -2.536997,-3.7145601 8.728477,-1.9629782 0.724856,5.1037443 -6.916336,0.573794"/>
 <path style="fill:none;stroke:#00feff;stroke-linecap:round;stroke-linejoin:bevel" d="m 3.2601648,9.822055 7.4599782,-3.1407661 6.19148,-5.6775383 m 1.328902,18.4927554 -6.735121,-3.755317 m -3.714888,3.74476 9.211714,-5.315142 m -9.211714,5.315142 3.714888,-3.74476 M 7.790516,19.485949 8.99861,11.694434 M 3.2601648,9.822055 8.99861,11.694434 M 10.720143,6.6812889 8.99861,11.694434 11.505404,15.741189 17.00223,14.170807 18.240525,19.496506 7.790516,19.485949 3.2601648,9.822055 8.183146,2.9667288 Z m -2.536997,-3.7145601 8.728477,-1.9629782 0.724856,5.1037443 -6.916336,0.573794"/>
 <path style="opacity:0.2;fill:#f4f4f7;fill-rule:evenodd" d="m 16.923828,0.4980469 a 0.50005,0.50005 0 0 0 -0.169922,0.029297 L 8.0742188,2.4785156 a 0.50005,0.50005 0 0 0 -0.34375,0.2636719 0.50005,0.50005 0 0 0 -0.00195,0.00195 l -4.8242187,6.7167975 -0.00195,0.002 a 0.50005,0.50005 0 0 0 -0.1289063,0.220703 0.50005,0.50005 0 0 0 -0.011719,0.04687 0.50005,0.50005 0 0 0 0,0.0039 0.50005,0.50005 0 0 0 -0.00586,0.04687 0.50005,0.50005 0 0 0 -0.00195,0.04492 0.50005,0.50005 0 0 0 0,0.0059 0.50005,0.50005 0 0 0 0.00195,0.03711 0.50005,0.50005 0 0 0 0.00781,0.05078 0.50005,0.50005 0 0 0 0.00195,0.01172 0.50005,0.50005 0 0 0 0.00977,0.03516 0.50005,0.50005 0 0 0 0.044922,0.103515 0.50005,0.50005 0 0 1 0.082031,-0.107421 l 0.00195,-0.002 4.8242187,-6.7167975 a 0.50005,0.50005 0 0 0 0.00195,-0.00195 0.50005,0.50005 0 0 1 0.34375,-0.2636719 L 16.753906,1.0273438 a 0.50005,0.50005 0 0 1 0.169922,-0.029297 0.50005,0.50005 0 0 1 0.492188,0.5039062 l 0.654296,4.6113281 0.06055,-0.076172 -0.714843,-5.0351563 A 0.50005,0.50005 0 0 0 16.923828,0.4980469 Z M 15.189453,2.4042969 14.466797,2.5664062 10.806641,5.921875 9.308594,3.7265625 9.011719,3.7929685 10.806641,6.4218747 Z M 16.996094,5.6601562 12.736328,6.0136719 12.136719,6.5625 17.066406,6.1542969 Z M 9.695312,6.5683594 5.2148438,8.4570312 4.7011719,9.173828 9.960938,6.9570312 Z M 9.884766,8.0761719 9.683594,8.1601559 8.6855469,11.066406 5.359375,9.982422 l -0.6699219,0.28125 3.9960938,1.302734 z m -5.681641,3.0800781 3.3457031,7.132812 0.890625,-5.751953 -0.074219,-0.02344 -0.8164063,5.27539 -3.0683593,-6.542968 z m 5.457031,0.654297 -0.111328,0.322265 2.181641,3.523438 5.097656,-1.455078 a 0.50005,0.50005 0 0 1 0.03711,-0.01172 0.50005,0.50005 0 0 1 0.642578,0.447266 l 1.183594,5.089843 a 0.50005,0.50005 0 0 0 0.02148,-0.404296 l -1.205079,-5.185547 a 0.50005,0.50005 0 0 0 -0.642578,-0.447266 0.50005,0.50005 0 0 0 -0.03711,0.01172 l -5.097656,1.455078 z m 1.021485,4.048828 -2.0683598,2.089844 -0.091797,0.591797 2.3515628,-2.373047 z m 2.552734,0.408203 -0.433594,0.125 0.111328,0.06055 z m 1.134766,0.5 -0.439453,0.253906 3.568359,1.990235 -0.132813,-0.574219 z m -2.775391,0.0957 -0.816406,0.822266 1.126953,-0.650391 z m -1.072266,2.125 -0.865234,0.5 6.65625,0.0059 -0.898438,-0.5 z"/>
 <path style="opacity:0.1" d="M 16.5,0.5 A 1.5,1.5 0 0 0 15,2 1.5,1.5 0 0 0 16.5,3.5 1.5,1.5 0 0 0 18,2 1.5,1.5 0 0 0 16.5,0.5 Z m -8,1 A 1.5,1.5 0 0 0 7,3 1.5,1.5 0 0 0 8.5,4.5 1.5,1.5 0 0 0 10,3 1.5,1.5 0 0 0 8.5,1.5 Z m 9,3 A 1.5,1.5 0 0 0 16,6 1.5,1.5 0 0 0 17.5,7.5 1.5,1.5 0 0 0 19,6 1.5,1.5 0 0 0 17.5,4.5 Z m -7,1 A 1.5,1.5 0 0 0 9,7 1.5,1.5 0 0 0 10.5,8.5 1.5,1.5 0 0 0 12,7 1.5,1.5 0 0 0 10.5,5.5 Z m -7,3 A 1.5,1.5 0 0 0 2,10 1.5,1.5 0 0 0 3.5,11.5 1.5,1.5 0 0 0 5,10 1.5,1.5 0 0 0 3.5,8.5 Z m 6,2 A 1.5,1.5 0 0 0 8,12 1.5,1.5 0 0 0 9.5,13.5 1.5,1.5 0 0 0 11,12 1.5,1.5 0 0 0 9.5,10.5 Z m 8,3 A 1.5,1.5 0 0 0 16,15 1.5,1.5 0 0 0 17.5,16.5 1.5,1.5 0 0 0 19,15 1.5,1.5 0 0 0 17.5,13.5 Z m -5,1 A 1.5,1.5 0 0 0 11,16 1.5,1.5 0 0 0 12.5,17.5 1.5,1.5 0 0 0 14,16 1.5,1.5 0 0 0 12.5,14.5 Z m -5,4 A 1.5,1.5 0 0 0 6,20 1.5,1.5 0 0 0 7.5,21.5 1.5,1.5 0 0 0 9,20 1.5,1.5 0 0 0 7.5,18.5 Z m 11,0 A 1.5,1.5 0 0 0 17,20 1.5,1.5 0 0 0 18.5,21.5 1.5,1.5 0 0 0 20,20 1.5,1.5 0 0 0 18.5,18.5 Z"/>
 <path style="fill:#ff6060" d="M 16.5,0 A 1.5,1.5 0 0 0 15,1.5 1.5,1.5 0 0 0 16.5,3 1.5,1.5 0 0 0 18,1.5 1.5,1.5 0 0 0 16.5,0 Z m -8,1 A 1.5,1.5 0 0 0 7,2.5 1.5,1.5 0 0 0 8.5,4 1.5,1.5 0 0 0 10,2.5 1.5,1.5 0 0 0 8.5,1 Z m 9,3 A 1.5,1.5 0 0 0 16,5.5 1.5,1.5 0 0 0 17.5,7 1.5,1.5 0 0 0 19,5.5 1.5,1.5 0 0 0 17.5,4 Z m -7,1 A 1.5,1.5 0 0 0 9,6.5 1.5,1.5 0 0 0 10.5,8 1.5,1.5 0 0 0 12,6.5 1.5,1.5 0 0 0 10.5,5 Z m -7,3 A 1.5,1.5 0 0 0 2,9.5 1.5,1.5 0 0 0 3.5,11 1.5,1.5 0 0 0 5,9.5 1.5,1.5 0 0 0 3.5,8 Z m 6,2 A 1.5,1.5 0 0 0 8,11.5 1.5,1.5 0 0 0 9.5,13 1.5,1.5 0 0 0 11,11.5 1.5,1.5 0 0 0 9.5,10 Z m 8,3 A 1.5,1.5 0 0 0 16,14.5 1.5,1.5 0 0 0 17.5,16 1.5,1.5 0 0 0 19,14.5 1.5,1.5 0 0 0 17.5,13 Z m -5,1 A 1.5,1.5 0 0 0 11,15.5 1.5,1.5 0 0 0 12.5,17 1.5,1.5 0 0 0 14,15.5 1.5,1.5 0 0 0 12.5,14 Z m -5,4 A 1.5,1.5 0 0 0 6,19.5 1.5,1.5 0 0 0 7.5,21 1.5,1.5 0 0 0 9,19.5 1.5,1.5 0 0 0 7.5,18 Z m 11,0 A 1.5,1.5 0 0 0 17,19.5 1.5,1.5 0 0 0 18.5,21 1.5,1.5 0 0 0 20,19.5 1.5,1.5 0 0 0 18.5,18 Z"/>
</svg>

<svg xmlns="http://www.w3.org/2000/svg" width="22" height="22"><path style="fill:#007c7d;fill-rule:evenodd" d="M16.761.939a.715.715 0 0 0-.24.039L8.416 2.933a.715.715 0 0 0-.485.367L3.366 9.356a.715.715 0 0 0-.178.716.715.715 0 0 0 .098.205v.002l4.217 8.995.001.003a.758.758 0 0 0 .004.013l.002.006a.719.719 0 0 0 .257.358h.002a.719.719 0 0 0 .058.038l.001.003a.702.702 0 0 0 .059.03l.006.004a.804.804 0 0 0 .05.021.758.758 0 0 0 .372.037l9.569.01a.715.715 0 0 0 .753-.965l-1.134-4.137a.715.715 0 0 0-.962-.62l-.007.001-4.813 1.334-2.326-3.85 1.38-4.608 6.718-.508.65-.812-.677-3.977A.715.715 0 0 0 16.76.94z"/><path style="opacity:.2;fill:none;stroke:#000;stroke-linecap:round;stroke-linejoin:bevel" d="m3.26 10.322 7.46-3.14 6.192-5.678m1.329 18.493-6.736-3.756m-3.714 3.745 9.211-5.315m-9.211 5.315 3.714-3.745m-3.714 3.745 1.208-7.792M3.26 10.322 9 12.194m1.721-5.013L9 12.194l2.506 4.047 5.497-1.57 1.239 5.326-10.45-.011-4.53-9.664 4.922-6.855zM8.183 3.467l8.729-1.963.724 5.103-6.916.574"/><path style="fill:none;stroke:#00feff;stroke-linecap:round;stroke-linejoin:bevel" d="m3.26 9.822 7.46-3.14 6.192-5.678m1.329 18.493-6.736-3.756m-3.714 3.745 9.211-5.315m-9.211 5.315 3.714-3.745m-3.714 3.745 1.208-7.792M3.26 9.822 9 11.694m1.721-5.013L9 11.694l2.506 4.047 5.497-1.57 1.239 5.326-10.45-.011-4.53-9.664 4.922-6.855zM8.183 2.967l8.729-1.963.724 5.103-6.916.574"/><path style="opacity:.2;fill:#f4f4f7;fill-rule:evenodd" d="M16.924.498a.5.5 0 0 0-.17.03l-8.68 1.95a.5.5 0 0 0-.344.264.5.5 0 0 0-.001.002L2.904 9.461l-.002.002a.5.5 0 0 0-.129.22.5.5 0 0 0-.011.048.5.5 0 0 0 0 .003.5.5 0 0 0-.006.047.5.5 0 0 0-.002.045.5.5 0 0 0 0 .006.5.5 0 0 0 .002.037.5.5 0 0 0 .008.051.5.5 0 0 0 .002.012.5.5 0 0 0 .01.035.5.5 0 0 0 .044.103.5.5 0 0 1 .082-.107l.002-.002L7.73 3.244a.5.5 0 0 0 .001-.002.5.5 0 0 1 .344-.263l8.68-1.952a.5.5 0 0 1 .17-.029.5.5 0 0 1 .492.504l.654 4.611.06-.076-.714-5.035a.5.5 0 0 0-.492-.504zm-1.735 1.906-.722.162-3.66 3.356-1.498-2.195-.297.066 1.795 2.629zm1.807 3.256-4.26.354-.6.548 4.93-.408zm-7.3.908L5.214 8.457l-.514.717 5.26-2.217zm.189 1.508-.201.084-.998 2.906-3.327-1.084-.67.282 3.997 1.302zm-5.682 3.08L7.55 18.29l.89-5.752-.074-.023-.816 5.275-3.069-6.543zm5.457.655-.111.322 2.181 3.523 5.098-1.455a.5.5 0 0 1 .037-.012.5.5 0 0 1 .643.448l1.183 5.09a.5.5 0 0 0 .022-.405l-1.205-5.185a.5.5 0 0 0-.643-.448.5.5 0 0 0-.037.012l-5.098 1.455zm1.022 4.048-2.069 2.09-.092.592 2.352-2.373zm2.552.409-.433.125.111.06zm1.135.5-.44.253 3.569 1.99-.133-.573zm-2.775.095-.817.823 1.127-.65zm-1.073 2.125-.865.5 6.657.006-.899-.5z"/><path style="opacity:.1" d="M16.5.5A1.5 1.5 0 0 0 15 2a1.5 1.5 0 0 0 1.5 1.5A1.5 1.5 0 0 0 18 2 1.5 1.5 0 0 0 16.5.5zm-8 1A1.5 1.5 0 0 0 7 3a1.5 1.5 0 0 0 1.5 1.5A1.5 1.5 0 0 0 10 3a1.5 1.5 0 0 0-1.5-1.5zm9 3A1.5 1.5 0 0 0 16 6a1.5 1.5 0 0 0 1.5 1.5A1.5 1.5 0 0 0 19 6a1.5 1.5 0 0 0-1.5-1.5zm-7 1A1.5 1.5 0 0 0 9 7a1.5 1.5 0 0 0 1.5 1.5A1.5 1.5 0 0 0 12 7a1.5 1.5 0 0 0-1.5-1.5zm-7 3A1.5 1.5 0 0 0 2 10a1.5 1.5 0 0 0 1.5 1.5A1.5 1.5 0 0 0 5 10a1.5 1.5 0 0 0-1.5-1.5zm6 2A1.5 1.5 0 0 0 8 12a1.5 1.5 0 0 0 1.5 1.5A1.5 1.5 0 0 0 11 12a1.5 1.5 0 0 0-1.5-1.5zm8 3A1.5 1.5 0 0 0 16 15a1.5 1.5 0 0 0 1.5 1.5A1.5 1.5 0 0 0 19 15a1.5 1.5 0 0 0-1.5-1.5zm-5 1A1.5 1.5 0 0 0 11 16a1.5 1.5 0 0 0 1.5 1.5A1.5 1.5 0 0 0 14 16a1.5 1.5 0 0 0-1.5-1.5zm-5 4A1.5 1.5 0 0 0 6 20a1.5 1.5 0 0 0 1.5 1.5A1.5 1.5 0 0 0 9 20a1.5 1.5 0 0 0-1.5-1.5zm11 0A1.5 1.5 0 0 0 17 20a1.5 1.5 0 0 0 1.5 1.5A1.5 1.5 0 0 0 20 20a1.5 1.5 0 0 0-1.5-1.5z"/><path style="fill:#ff6060" d="M16.5 0A1.5 1.5 0 0 0 15 1.5 1.5 1.5 0 0 0 16.5 3 1.5 1.5 0 0 0 18 1.5 1.5 1.5 0 0 0 16.5 0zm-8 1A1.5 1.5 0 0 0 7 2.5 1.5 1.5 0 0 0 8.5 4 1.5 1.5 0 0 0 10 2.5 1.5 1.5 0 0 0 8.5 1zm9 3A1.5 1.5 0 0 0 16 5.5 1.5 1.5 0 0 0 17.5 7 1.5 1.5 0 0 0 19 5.5 1.5 1.5 0 0 0 17.5 4zm-7 1A1.5 1.5 0 0 0 9 6.5 1.5 1.5 0 0 0 10.5 8 1.5 1.5 0 0 0 12 6.5 1.5 1.5 0 0 0 10.5 5zm-7 3A1.5 1.5 0 0 0 2 9.5 1.5 1.5 0 0 0 3.5 11 1.5 1.5 0 0 0 5 9.5 1.5 1.5 0 0 0 3.5 8zm6 2A1.5 1.5 0 0 0 8 11.5 1.5 1.5 0 0 0 9.5 13a1.5 1.5 0 0 0 1.5-1.5A1.5 1.5 0 0 0 9.5 10zm8 3a1.5 1.5 0 0 0-1.5 1.5 1.5 1.5 0 0 0 1.5 1.5 1.5 1.5 0 0 0 1.5-1.5 1.5 1.5 0 0 0-1.5-1.5zm-5 1a1.5 1.5 0 0 0-1.5 1.5 1.5 1.5 0 0 0 1.5 1.5 1.5 1.5 0 0 0 1.5-1.5 1.5 1.5 0 0 0-1.5-1.5zm-5 4A1.5 1.5 0 0 0 6 19.5 1.5 1.5 0 0 0 7.5 21 1.5 1.5 0 0 0 9 19.5 1.5 1.5 0 0 0 7.5 18zm11 0a1.5 1.5 0 0 0-1.5 1.5 1.5 1.5 0 0 0 1.5 1.5 1.5 1.5 0 0 0 1.5-1.5 1.5 1.5 0 0 0-1.5-1.5z"/></svg>
